assets/fc/fc-in-transit.svg

<svg xmlns="http://www.w3.org/2000/svg" width="100%" height="100%" viewBox="0 0 48 48"><path fill="#FFC107" d="M44 36H30V16c0-1.1.9-2 2-2h8c.6 0 1.2.3 1.6.8l6 7.7c.3.4.4.8.4 1.2V32c0 2.2-1.8 4-4 4z"/><g fill="#9575CD"><path d="M8 36h22V13c0-2.2-1.8-4-4-4H4v23c0 2.2 1.8 4 4 4z"/><path d="M0 9h10v2H0zM0 14h10v2H0zM0 19h10v2H0zM0 24h10v2H0z"/></g><g fill="#7E57C2"><path d="M4 11h16v2H4zM4 16h12v2H4zM4 21h8v2H4zM4 26h4v2H4z"/></g><g fill="#37474F"><circle cx="39" cy="36" r="5"/><circle cx="16" cy="36" r="5"/></g><g fill="#78909C"><circle cx="39" cy="36" r="2.5"/><circle cx="16" cy="36" r="2.5"/></g><path fill="#455A64" d="M44 26h-3.6c-.3 0-.5-.1-.7-.3l-1.4-1.4c-.2-.2-.4-.3-.7-.3H34c-.6 0-1-.4-1-1v-6c0-.6.4-1 1-1h5.5c.3 0 .6.1.8.4l4.5 5.4c.1.2.2.4.2.6V25c0 .6-.4 1-1 1z"/></svg>

<svg xmlns="http://www.w3.org/2000/svg" width="100%" height="100%" viewBox="0 0 48 48"><path fill="#FFC107" d="M44,36H30V16c0-1.1,0.9-2,2-2h8c0.6,0,1.2,0.3,1.6,0.8l6,7.7c0.3,0.4,0.4,0.8,0.4,1.2V32 C48,34.2,46.2,36,44,36z"/><g fill="#9575CD"><path d="M8,36h22V13c0-2.2-1.8-4-4-4H4v23C4,34.2,5.8,36,8,36z"/><path d="M0 9H10V11H0zM0 14H10V16H0zM0 19H10V21H0zM0 24H10V26H0z"/></g><g fill="#7E57C2"><path d="M4 11H20V13H4zM4 16H16V18H4zM4 21H12V23H4zM4 26H8V28H4z"/></g><g fill="#37474F"><circle cx="39" cy="36" r="5"/><circle cx="16" cy="36" r="5"/></g><g fill="#78909C"><circle cx="39" cy="36" r="2.5"/><circle cx="16" cy="36" r="2.5"/></g><path fill="#455A64" d="M44,26h-3.6c-0.3,0-0.5-0.1-0.7-0.3l-1.4-1.4c-0.2-0.2-0.4-0.3-0.7-0.3H34c-0.6,0-1-0.4-1-1v-6 c0-0.6,0.4-1,1-1h5.5c0.3,0,0.6,0.1,0.8,0.4l4.5,5.4c0.1,0.2,0.2,0.4,0.2,0.6V25C45,25.6,44.6,26,44,26z"/></svg>
